svg/300/sharp/center_focus_strong-fill.svg

<svg xmlns="http://www.w3.org/2000/svg" width="48" height="48" viewBox="0 -960 960 960"><path d="M480-309.54q-70.681 0-120.571-49.889Q309.54-409.319 309.54-480t49.889-120.571Q409.319-650.46 480-650.46t120.571 49.889Q650.46-550.681 650.46-480t-49.889 120.571Q550.681-309.54 480-309.54ZM140.001-140.001v-214.307h45.384v168.923h168.923v45.384H140.001Zm465.691 0v-45.384h168.923v-168.923h45.384v214.307H605.692ZM140.001-605.692v-214.307h214.307v45.384H185.385v168.923h-45.384Zm634.614 0v-168.923H605.692v-45.384h214.307v214.307h-45.384Z"/></svg>

<svg xmlns="http://www.w3.org/2000/svg" width="48" height="48" viewBox="0 -960 960 960"><path d="M480-309.54q-70.68 0-120.57-49.89-49.89-49.89-49.89-120.57 0-70.68 49.89-120.57 49.89-49.89 120.57-49.89 70.68 0 120.57 49.89 49.89 49.89 49.89 120.57 0 70.68-49.89 120.57-49.89 49.89-120.57 49.89ZM140-140v-214.31h45.39v168.92h168.92V-140H140Zm465.69 0v-45.39h168.92v-168.92H820V-140H605.69ZM140-605.69V-820h214.31v45.39H185.39v168.92H140Zm634.61 0v-168.92H605.69V-820H820v214.31h-45.39Z"/></svg>
